assets/images/kenya.svg

<svg height="46" viewBox="0 0 68 46" width="68" xmlns="http://www.w3.org/2000/svg"><path d="m.385.705v44.59h67.23v-44.59zm64.23 3v10.863h-22.817l3.432-4.854-2.45-1.732-3.956 5.596c-1.771-2.738-3.671-4.485-3.819-4.619l-1.005-.905-1.004.905c-.148.134-2.048 1.881-3.819 4.619l-3.956-5.595-2.449 1.732 3.432 4.854h-22.819v-10.864zm-37.488 24.727h-23.742v-10.864h23.742c-.63 1.663-1.048 3.495-1.048 5.432s.418 3.769 1.048 5.432zm1.952-5.432c0-4.729 3.233-8.917 4.923-10.783 1.691 1.861 4.92 6.036 4.92 10.783 0 4.728-3.233 8.916-4.924 10.783-1.691-1.861-4.919-6.036-4.919-10.783zm11.794-5.432h23.742v10.863h-23.741c.63-1.663 1.048-3.495 1.048-5.432s-.418-3.768-1.049-5.431zm-37.488 24.727v-10.863h22.818l-3.432 4.854 2.449 1.731 3.956-5.596c1.771 2.738 3.671 4.485 3.819 4.619l1.005.906 1.004-.905c.148-.134 2.048-1.881 3.819-4.619l3.957 5.596 2.449-1.732-3.432-4.854h22.817v10.863z"/></svg>

<?xml version="1.0" encoding="UTF-8"?>
<svg width="68px" height="46px" viewBox="0 0 68 46" version="1.1" xmlns="http://www.w3.org/2000/svg" xmlns:xlink="http://www.w3.org/1999/xlink">
    <!-- Generator: Sketch 43.2 (39069) - http://www.bohemiancoding.com/sketch -->
    <title>kenya</title>
    <desc>Created with Sketch.</desc>
    <defs></defs>
    <g id="Page-1" stroke="none" stroke-width="1" fill="none" fill-rule="evenodd">
        <g id="kenya" fill-rule="nonzero" fill="#000000">
            <path d="M0.385,0.705 L0.385,45.295 L67.615,45.295 L67.615,0.705 L0.385,0.705 Z M64.615,3.705 L64.615,14.568 L41.798,14.568 L45.23,9.714 L42.78,7.982 L38.824,13.578 C37.053,10.84 35.153,9.093 35.005,8.959 L34,8.054 L32.996,8.959 C32.848,9.093 30.948,10.84 29.177,13.578 L25.221,7.983 L22.772,9.715 L26.204,14.569 L3.385,14.569 L3.385,3.705 L64.615,3.705 Z M27.127,28.432 L3.385,28.432 L3.385,17.568 L27.127,17.568 C26.497,19.231 26.079,21.063 26.079,23 C26.079,24.937 26.497,26.769 27.127,28.432 Z M29.079,23 C29.079,18.271 32.312,14.083 34.002,12.217 C35.693,14.078 38.922,18.253 38.922,23 C38.922,27.728 35.689,31.916 33.998,33.783 C32.307,31.922 29.079,27.747 29.079,23 L29.079,23 Z M40.873,17.568 L64.615,17.568 L64.615,28.431 L40.874,28.431 C41.504,26.768 41.922,24.936 41.922,22.999 C41.922,21.062 41.504,19.231 40.873,17.568 L40.873,17.568 Z M3.385,42.295 L3.385,31.432 L26.203,31.432 L22.771,36.286 L25.22,38.017 L29.176,32.421 C30.947,35.159 32.847,36.906 32.995,37.04 L34,37.946 L35.004,37.041 C35.152,36.907 37.052,35.16 38.823,32.422 L42.78,38.018 L45.229,36.286 L41.797,31.432 L64.614,31.432 L64.614,42.295 L3.385,42.295 Z" id="Shape"></path>
        </g>
    </g>
</svg>
